X:34
T:The Idle Road
S:Kilkenny Tavern sessions, London
B:O'Neill's 1850, No. 839; DMI, No. 101.
N:Also called 'The Winding Road'.
Z:ATB
R:jig
M:6/8
L:1/8
K:G
E|:DBB Dcc|DBB c2e|dBG FGA|BGB AFD|
DBB Dcc|DBB c2e|dBG FGA|[1 BGF G2E:|][2 BGF GBd|]
efg efg|fed cAF|GBd gfg|afd cAF|
DBB Dcc|DBB c2e|dBG FGA|[1 BGF GBd:|][2 BGF G2|]
